src/lib/packages/icons/src/assets/filled/bus.svg

<svg width="24" height="24" viewBox="0 0 24 24" fill="none" xmlns="http://www.w3.org/2000/svg">
<path d="M16 2.25H8C5.58 2.25 4.25 3.58 4.25 6V17C4.25 18.748 4.953 19.917 6.25 20.437V21C6.25 21.41 6.59 21.75 7 21.75C7.41 21.75 7.75 21.41 7.75 21V20.732C7.835 20.736 7.912 20.75 8 20.75H16C16.088 20.75 16.165 20.735 16.25 20.732V21C16.25 21.41 16.59 21.75 17 21.75C17.41 21.75 17.75 21.41 17.75 21V20.437C19.047 19.917 19.75 18.748 19.75 17V6C19.75 3.58 18.42 2.25 16 2.25ZM9.01999 18C8.46999 18 8.01999 17.55 8.01999 17C8.01999 16.45 8.46001 16 9.01001 16H9.01999C9.56999 16 10.02 16.45 10.02 17C10.02 17.55 9.56999 18 9.01999 18ZM15.02 18C14.47 18 14.02 17.55 14.02 17C14.02 16.45 14.46 16 15.01 16H15.02C15.57 16 16.02 16.45 16.02 17C16.02 17.55 15.57 18 15.02 18ZM5.75 13.25V6C5.75 4.42 6.42 3.75 8 3.75H16C17.58 3.75 18.25 4.42 18.25 6V13.25H5.75ZM13.75 6C13.75 6.414 13.414 6.75 13 6.75H11C10.586 6.75 10.25 6.414 10.25 6C10.25 5.586 10.586 5.25 11 5.25H13C13.414 5.25 13.75 5.586 13.75 6ZM21.75 10V13C21.75 13.414 21.414 13.75 21 13.75C20.586 13.75 20.25 13.414 20.25 13V10C20.25 9.586 20.586 9.25 21 9.25C21.414 9.25 21.75 9.586 21.75 10ZM3.75 10V13C3.75 13.414 3.414 13.75 3 13.75C2.586 13.75 2.25 13.414 2.25 13V10C2.25 9.586 2.586 9.25 3 9.25C3.414 9.25 3.75 9.586 3.75 10Z" fill="currentColor"/>
</svg>

<svg xmlns="http://www.w3.org/2000/svg" width="24" height="24" fill="none"><path fill="currentColor" d="M16 2.25H8C5.58 2.25 4.25 3.58 4.25 6v11c0 1.748.703 2.917 2 3.437V21c0 .41.34.75.75.75s.75-.34.75-.75v-.268c.085.004.162.018.25.018h8c.088 0 .165-.015.25-.018V21c0 .41.34.75.75.75s.75-.34.75-.75v-.563c1.297-.52 2-1.689 2-3.437V6c0-2.42-1.33-3.75-3.75-3.75ZM9.02 18c-.55 0-1-.45-1-1s.44-1 .99-1h.01c.55 0 1 .45 1 1s-.45 1-1 1Zm6 0c-.55 0-1-.45-1-1s.44-1 .99-1h.01c.55 0 1 .45 1 1s-.45 1-1 1Zm-9.27-4.75V6c0-1.58.67-2.25 2.25-2.25h8c1.58 0 2.25.67 2.25 2.25v7.25H5.75Zm8-7.25a.75.75 0 0 1-.75.75h-2a.75.75 0 0 1 0-1.5h2a.75.75 0 0 1 .75.75Zm8 4v3a.75.75 0 0 1-1.5 0v-3a.75.75 0 0 1 1.5 0Zm-18 0v3a.75.75 0 0 1-1.5 0v-3a.75.75 0 0 1 1.5 0Z"/></svg>
